styles/5/Numix/96/places/orange-folder-google-drive.svg

<?xml version="1.0" encoding="UTF-8" standalone="no"?>
<svg
   xmlns:dc="http://purl.org/dc/elements/1.1/"
   xmlns:cc="http://creativecommons.org/ns#"
   xmlns:rdf="http://www.w3.org/1999/02/22-rdf-syntax-ns#"
   xmlns:svg="http://www.w3.org/2000/svg"
   xmlns="http://www.w3.org/2000/svg"
   xmlns:xlink="http://www.w3.org/1999/xlink"
   xmlns:sodipodi="http://sodipodi.sourceforge.net/DTD/sodipodi-0.dtd"
   xmlns:inkscape="http://www.inkscape.org/namespaces/inkscape"
   width="96"
   viewBox="0 0 96 96"
   height="96"
   id="svg2"
   version="1.1"
   inkscape:version="0.91 r"
   sodipodi:docname="orange-folder-google-drive.svg">
  <metadata
     id="metadata20">
    <rdf:RDF>
      <cc:Work
         rdf:about="">
        <dc:format>image/svg+xml</dc:format>
        <dc:type
           rdf:resource="http://purl.org/dc/dcmitype/StillImage" />
      </cc:Work>
    </rdf:RDF>
  </metadata>
  <defs
     id="defs18">
    <linearGradient
       id="linearGradient3886">
      <stop
         style="stop-color:#000000;stop-opacity:1;"
         offset="0"
         id="stop3888" />
      <stop
         style="stop-color:#000000;stop-opacity:0.19607843;"
         offset="1"
         id="stop3890" />
    </linearGradient>
    <radialGradient
       r="24"
       fy="40.5"
       fx="24"
       cy="40.5"
       cx="24"
       gradientTransform="matrix(2.5,0,0,0.41666654,-12,63.125)"
       gradientUnits="userSpaceOnUse"
       id="radialGradient3281"
       xlink:href="#linearGradient3886"
       inkscape:collect="always" />
  </defs>
  <sodipodi:namedview
     pagecolor="#ffffff"
     bordercolor="#666666"
     borderopacity="1"
     objecttolerance="10"
     gridtolerance="10"
     guidetolerance="10"
     inkscape:pageopacity="0"
     inkscape:pageshadow="2"
     inkscape:window-width="1280"
     inkscape:window-height="998"
     id="namedview16"
     showgrid="true"
     inkscape:zoom="4.0000002"
     inkscape:cx="66.996239"
     inkscape:cy="43.123081"
     inkscape:window-x="0"
     inkscape:window-y="0"
     inkscape:window-maximized="1"
     inkscape:current-layer="svg2">
    <inkscape:grid
       type="xygrid"
       id="grid3104"
       empspacing="5"
       visible="true"
       enabled="true"
       snapvisiblegridlinesonly="true" />
  </sodipodi:namedview>
  <path
     inkscape:connector-curvature="0"
     style="opacity:0.1;fill:url(#radialGradient3281);fill-opacity:1;stroke:none"
     d="M 48,70 C 28.346902,70 10.94406,71.5662 0,74 l 0,12 c 10.94406,2.4338 28.346902,4 48,4 19.653098,0 37.05594,-1.5662 48,-4 L 96,74 C 85.05594,71.5662 67.653098,70 48,70 z"
     id="path3868" />
  <rect
     style="fill:#e65100;fill-opacity:1;stroke:none"
     id="rect2987"
     width="92"
     height="64.000038"
     x="2"
     y="19.999964"
     rx="10"
     ry="10" />
  <path
     style="opacity:0.2;fill:#ffffff;fill-opacity:1;stroke:none"
     d="M 12,20 C 6.46,20 2,24.46 2,30 l 0,4 C 2,28.46 6.46,24 12,24 l 72,0 c 5.54,0 10,4.46 10,10 l 0,-4 C 94,24.46 89.54,20 84,20 l -72,0 z"
     id="rect3797"
     inkscape:connector-curvature="0" />
  <path
     style="fill:#f57c00;fill-opacity:1;stroke:none"
     d="m 12,36 16,0 C 50,34 46,12 60,12 l 24,0 c 5.54,0 10,4.46 10,10 l 0,52 c 0,5.54 -4.46,10 -10,10 L 12,84 C 6.46,84 2,79.54 2,74 L 2,46 C 2,40 6,36 12,36 z"
     id="rect3776"
     inkscape:connector-curvature="0"
     sodipodi:nodetypes="cccsssssscc" />
  <path
     style="opacity:0.15;fill:#000000;fill-opacity:1;stroke:none"
     d="m 2,70 0,4 c 0,5.54 4.46,10 10,10 l 72,0 c 5.54,0 10,-4.46 10,-10 l 0,-4 c 0,5.54 -4.46,10 -10,10 L 12,80 C 6.46,80 2,75.54 2,70 z"
     id="path3786"
     inkscape:connector-curvature="0" />
  <path
     style="fill:#000000;fill-opacity:0.09803922;fill-rule:evenodd"
     d="M 23.25,46 32.625,62 42,62 32.625,46 23.25,46 z M 21.75,47 11.5,63 16.625,71 26.5625,55.125 21.75,47 z M 23.125,64 18,72 37.1875,72 42,64 23.125,64 z"
     id="path8113"
     inkscape:connector-curvature="0" />
  <path
     style="fill:#fff8e1;fill-opacity:1;fill-rule:evenodd"
     d="M 18,70 23.099696,62 42,62 37.199868,70 z"
     id="polygon3475-1"
     inkscape:connector-curvature="0"
     sodipodi:nodetypes="ccccc" />
  <path
     style="fill:#fff8e1;fill-opacity:1;fill-rule:evenodd"
     d="M 32.635494,60 42,60 32.635494,44 l -9.36514,0 z"
     id="polygon3477-6"
     inkscape:connector-curvature="0" />
  <path
     style="fill:#fff8e1;fill-opacity:1;fill-rule:evenodd"
     d="m 26.55675,53.119762 -4.832796,-8.133648 -10.223955,16.013388 5.112323,8.006694 z"
     id="polygon3479-9"
     inkscape:connector-curvature="0"
     sodipodi:nodetypes="ccccc" />
</svg>

<svg xmlns="http://www.w3.org/2000/svg" viewBox="0 0 96 96">
 <defs>
  <radialGradient r="24" cy="40.5" cx="24" gradientTransform="matrix(2.5,0,0,0.41666654,-12,63.125)" gradientUnits="userSpaceOnUse" id="radialGradient3281">
   <stop style="stop-color:#000;stop-opacity:1"/>
   <stop offset="1" style="stop-color:#000;stop-opacity:0.196"/>
  </radialGradient>
 </defs>
 <path d="m 48 70 c -19.653 0 -37.06 1.566 -48 4 l 0 12 c 10.944 2.434 28.347 4 48 4 19.653 0 37.06 -1.566 48 -4 l 0 -12 c -10.944 -2.434 -28.347 -4 -48 -4 z" style="fill:url(#radialGradient3281);opacity:0.1;fill-opacity:1;stroke:none"/>
 <rect width="92" height="64" x="2" y="20" rx="10" style="fill:#e65100;fill-opacity:1;stroke:none"/>
 <path d="M 12,20 C 6.46,20 2,24.46 2,30 l 0,4 C 2,28.46 6.46,24 12,24 l 72,0 c 5.54,0 10,4.46 10,10 l 0,-4 C 94,24.46 89.54,20 84,20 l -72,0 z" style="fill:#fff;opacity:0.2;fill-opacity:1;stroke:none"/>
 <path d="m 12,36 16,0 C 50,34 46,12 60,12 l 24,0 c 5.54,0 10,4.46 10,10 l 0,52 c 0,5.54 -4.46,10 -10,10 L 12,84 C 6.46,84 2,79.54 2,74 L 2,46 C 2,40 6,36 12,36 z" style="fill:#f57c00;fill-opacity:1;stroke:none"/>
 <path d="m 2,70 0,4 c 0,5.54 4.46,10 10,10 l 72,0 c 5.54,0 10,-4.46 10,-10 l 0,-4 c 0,5.54 -4.46,10 -10,10 L 12,80 C 6.46,80 2,75.54 2,70 z" style="fill:#000;opacity:0.15;fill-opacity:1;stroke:none"/>
 <path d="M 23.25,46 32.625,62 42,62 32.625,46 23.25,46 z M 21.75,47 11.5,63 16.625,71 26.5625,55.125 21.75,47 z M 23.125,64 18,72 37.1875,72 42,64 23.125,64 z" style="fill:#000;fill-opacity:0.098;fill-rule:evenodd"/>
 <path d="m 18 70 5.1 -8 18.9 0 -4.8 8 z" style="fill:#fff8e1;fill-opacity:1;fill-rule:evenodd"/>
 <path d="m 32.635 60 9.365 0 -9.365 -16 l -9.365 0 z" style="fill:#fff8e1;fill-opacity:1;fill-rule:evenodd"/>
 <path d="m 26.557 53.12 -4.833 -8.134 -10.224 16.01 5.112 8.01 z" style="fill:#fff8e1;fill-opacity:1;fill-rule:evenodd"/>
</svg>
